X: 17667
T: Holly Bush, The
R: reel
M: 4/4
K: Dmixolydian
A2FA DAFG|ABde fded|cGG2 EGG2|cedB cAGE|
A2FA DAFG|ABde fded|cGG2 cedB|cAGE D2dB:|
|:Add^c defg|age^c d=cAB|cGG2 cdeg|aged cAGc|
Add^c defg|age^c d=cAB|cGG2 cedB|cAGE D2dB:|

